X:13
T:Max's Reel
R:reel
C:Henrik Norbeck
H:My ex-girlfriend Katarina had two rats called Max and Melker.
H:August 1993
M:C|
K:D
FAAF ABde|~f3e dBBA|~B3A FAdB|AFDE FE~E2|
AF~F2 BG~G2|ABdf efdb|afeg fd (3Bcd|AFEF D3z:|
|:Ad~d2 fede|fa~a2 bafb|afeg fe~e2|dfed BAFE|
FB~B2 defd|efgb afeg|fedB AF~F2|AFEF D3z:|

